public/assets/media/icons/cloudblockstorage.svg

<svg width="400" height="400" viewBox="0 0 400 400" fill="none" xmlns="http://www.w3.org/2000/svg">
<rect width="400" height="400" fill="white"/>
<path fill-rule="evenodd" clip-rule="evenodd" d="M86.1964 222.08C84.3674 214.591 83.4 206.784 83.4 198.76C83.4 142.56 130.858 97 189.4 97C246.63 97 293.266 140.54 295.329 194.996C297.779 194.682 300.28 194.52 302.82 194.52C333.847 194.52 359 218.723 359 248.58C359 278.437 333.847 302.64 302.82 302.64C302.696 302.64 302.572 302.64 302.448 302.639C302.379 302.638 302.31 302.638 302.241 302.637C302.081 302.639 301.921 302.64 301.76 302.64H81.28C59.034 302.64 41 284.606 41 262.36C41 240.114 59.034 222.08 81.28 222.08H86.1964Z" fill="#D1C5FF"/>
<path fill-rule="evenodd" clip-rule="evenodd" d="M86.1964 222.08C84.3674 214.591 83.4 206.784 83.4 198.76C83.4 142.56 130.858 97 189.4 97C246.63 97 293.266 140.54 295.329 194.996C297.779 194.682 300.28 194.52 302.82 194.52C333.847 194.52 359 218.723 359 248.58C359 278.437 333.847 302.64 302.82 302.64C302.696 302.64 302.572 302.64 302.448 302.639C302.379 302.638 302.31 302.638 302.241 302.637C302.081 302.639 301.921 302.64 301.76 302.64H81.28C59.034 302.64 41 284.606 41 262.36C41 240.114 59.034 222.08 81.28 222.08H86.1964Z" fill="url(#paint0_linear)"/>
<path fill-rule="evenodd" clip-rule="evenodd" d="M239.24 310.88C264.999 310.88 285.88 289.999 285.88 264.24C285.88 238.481 264.999 217.6 239.24 217.6C213.481 217.6 192.6 238.481 192.6 264.24C192.6 289.999 213.481 310.88 239.24 310.88ZM239.24 321.48C270.853 321.48 296.48 295.853 296.48 264.24C296.48 232.627 270.853 207 239.24 207C207.627 207 182 232.627 182 264.24C182 295.853 207.627 321.48 239.24 321.48Z" fill="#DAD8FF"/>
<path fill-rule="evenodd" clip-rule="evenodd" d="M199.452 296.532L271.532 224.452L279.028 231.948L206.948 304.028L199.452 296.532Z" fill="#DAD8FF"/>
<path fill-rule="evenodd" clip-rule="evenodd" d="M279.028 296.532L206.948 224.452L199.452 231.948L271.532 304.028L279.028 296.532Z" fill="#DAD8FF"/>
<defs>
<linearGradient id="paint0_linear" x1="66.6888" y1="76.1758" x2="486.339" y2="157.823" gradientUnits="userSpaceOnUse">
<stop stop-color="#584DCB"/>
<stop offset="1" stop-color="#6C8CFE"/>
</linearGradient>
</defs>
</svg>

<?xml version="1.0" encoding="utf-8"?>
<!-- Generator: Adobe Illustrator 23.0.1, SVG Export Plug-In . SVG Version: 6.00 Build 0)  -->
<svg version="1.1" id="Layer_1" xmlns="http://www.w3.org/2000/svg" xmlns:xlink="http://www.w3.org/1999/xlink" x="0px" y="0px"
	 viewBox="0 0 400 400" style="enable-background:new 0 0 400 400;" xml:space="preserve">
<style type="text/css">
	.st0{fill-rule:evenodd;clip-rule:evenodd;fill:#D1C5FF;}
	.st1{fill-rule:evenodd;clip-rule:evenodd;fill:url(#SVGID_1_);}
	.st2{fill-rule:evenodd;clip-rule:evenodd;fill:#DAD8FF;}
</style>
<path class="st0" d="M86.2,222.1c-1.8-7.5-2.8-15.3-2.8-23.3c0-56.2,47.5-101.8,106-101.8c57.2,0,103.9,43.5,105.9,98
	c2.4-0.3,5-0.5,7.5-0.5c31,0,56.2,24.2,56.2,54.1s-25.2,54.1-56.2,54.1c-0.1,0-0.2,0-0.4,0c-0.1,0-0.1,0-0.2,0c-0.2,0-0.3,0-0.5,0
	H81.3c-22.2,0-40.3-18-40.3-40.3s18-40.3,40.3-40.3H86.2z"/>
<linearGradient id="SVGID_1_" gradientUnits="userSpaceOnUse" x1="46.1382" y1="218.1982" x2="465.7884" y2="136.551" gradientTransform="matrix(1 0 0 -1 0 400)">
	<stop  offset="0" style="stop-color:#584DCB"/>
	<stop  offset="1" style="stop-color:#6C8CFE"/>
</linearGradient>
<path class="st1" d="M86.2,222.1c-1.8-7.5-2.8-15.3-2.8-23.3c0-56.2,47.5-101.8,106-101.8c57.2,0,103.9,43.5,105.9,98
	c2.4-0.3,5-0.5,7.5-0.5c31,0,56.2,24.2,56.2,54.1s-25.2,54.1-56.2,54.1c-0.1,0-0.2,0-0.4,0c-0.1,0-0.1,0-0.2,0c-0.2,0-0.3,0-0.5,0
	H81.3c-22.2,0-40.3-18-40.3-40.3s18-40.3,40.3-40.3H86.2z"/>
<path class="st2" d="M239.2,310.9c25.8,0,46.6-20.9,46.6-46.6s-20.9-46.6-46.6-46.6s-46.6,20.9-46.6,46.6S213.5,310.9,239.2,310.9z
	 M239.2,321.5c31.6,0,57.2-25.6,57.2-57.2S270.9,207,239.2,207S182,232.6,182,264.2S207.6,321.5,239.2,321.5z"/>
<path class="st2" d="M199.5,296.5l72.1-72.1l7.5,7.5L206.9,304L199.5,296.5z"/>
<path class="st2" d="M279,296.5l-72.1-72.1l-7.5,7.5l72.1,72.1L279,296.5z"/>
</svg>
